icons/mobile/20/svg/translate-20.svg

<svg width="20" height="20" viewBox="0 0 20 20" fill="none" xmlns="http://www.w3.org/2000/svg">
<path d="M17.201 16.558C17.317 16.817 17.575 17 17.877 17C18.287 17 18.619 16.668 18.619 16.258C18.619 16.198 18.612 16.14 18.599 16.085C18.595 16.066 18.589 16.048 18.584 16.03L18.561 15.967L15.374 8.45801C15.256 8.18101 14.985 8.00101 14.684 8.00101H13.855C13.554 8.00101 13.282 8.18101 13.165 8.45801L11.317 12.811C11.317 12.811 11.312 12.802 11.307 12.801C10.108 12.283 9.00501 11.54 8.04401 10.601C9.15201 9.39101 10.033 7.96201 10.583 6.41601L11.014 5.20301L12.239 5.33501C12.649 5.33501 12.981 5.00301 12.981 4.59301C12.981 4.18301 12.649 3.85101 12.239 3.85101C10.771 3.66301 9.27801 3.55101 7.79401 3.52201L7.75001 3.50201V2.75201C7.75001 2.33801 7.41401 2.00201 7.00001 2.00201C6.58601 2.00201 6.25001 2.33801 6.25001 2.75201V3.50201L6.28601 3.51901C4.77901 3.54601 3.27601 3.66201 1.78401 3.85301C1.38001 3.86001 1.05701 4.18801 1.05701 4.59401C1.05701 5.00001 1.38201 5.32601 1.78601 5.33401L1.84801 5.32801C4.36401 4.99201 6.92701 4.91501 9.46601 5.07601L9.16701 5.91601C8.70201 7.22401 7.96501 8.43501 7.04201 9.47401C6.34801 8.57401 5.78701 7.56901 5.40601 6.50301H3.81201L3.98401 6.98601C4.43901 8.26501 5.11401 9.47201 5.96201 10.539C5.19801 11.185 4.35901 11.716 3.46501 12.124L3.41201 12.154C3.16701 12.275 2.99501 12.522 2.99501 12.814C2.99501 13.224 3.32701 13.556 3.73701 13.556C3.84201 13.556 3.94201 13.533 4.03201 13.493C5.08201 13.022 6.06601 12.403 6.96001 11.645C8.06801 12.734 9.34301 13.592 10.73 14.188L9.97401 15.971C9.93501 16.06 9.91301 16.157 9.91301 16.261C9.91301 16.675 10.249 17.011 10.663 17.011C10.976 17.011 11.245 16.819 11.357 16.546L11.394 16.456L12.226 14.504H16.306L17.198 16.562L17.201 16.558ZM12.866 13L14.269 9.69401L15.672 13H12.865H12.866Z" fill="black"/>
</svg>

<!-- This Source Code Form is subject to the terms of the Mozilla Public
   - License, v. 2.0. If a copy of the MPL was not distributed with this
   - file, You can obtain one at http://mozilla.org/MPL/2.0/. -->
<svg xmlns="http://www.w3.org/2000/svg" width="20" height="20" fill="none" viewBox="0 0 20 20">
    <path fill="#000" d="M17.201 16.558a.742.742 0 0 0 1.398-.473l-.015-.055-.023-.063-3.187-7.509a.75.75 0 0 0-.69-.457h-.829a.75.75 0 0 0-.69.457l-1.848 4.353s-.005-.009-.01-.01a10.8 10.8 0 0 1-3.263-2.2 12.4 12.4 0 0 0 2.539-4.185l.431-1.213 1.225.132a.742.742 0 1 0 0-1.484 42 42 0 0 0-4.445-.329l-.044-.02v-.75a.75.75 0 0 0-1.5 0v.75l.036.017c-1.507.027-3.01.143-4.502.334a.74.74 0 0 0 .002 1.481l.062-.006a39 39 0 0 1 7.618-.252l-.299.84a10.9 10.9 0 0 1-2.125 3.558 10.9 10.9 0 0 1-1.636-2.971H3.812l.172.483a12.4 12.4 0 0 0 1.978 3.553 10.8 10.8 0 0 1-2.497 1.585l-.053.03a.737.737 0 0 0 .325 1.402.7.7 0 0 0 .295-.063 12.3 12.3 0 0 0 2.928-1.848 12.3 12.3 0 0 0 3.77 2.543l-.756 1.783a.7.7 0 0 0-.061.29.75.75 0 0 0 1.444.285l.037-.09.832-1.952h4.08l.892 2.058zM12.866 13l1.403-3.306L15.672 13z" />
</svg>
